svg/format_pilcrow.svg

<svg xmlns="http://www.w3.org/2000/svg" viewBox="0 0 24 24"><path d="M10 11a4 4 0 0 1-4-4 4 4 0 0 1 4-4h8v2h-2v16h-2V5h-2v16h-2z"/></svg>

<?xml version="1.0" encoding="UTF-8"?><!DOCTYPE svg PUBLIC "-//W3C//DTD SVG 1.1//EN" "http://www.w3.org/Graphics/SVG/1.1/DTD/svg11.dtd"><svg xmlns="http://www.w3.org/2000/svg" xmlns:xlink="http://www.w3.org/1999/xlink" version="1.1" id="mdi-format-pilcrow" width="24" height="24" viewBox="0 0 24 24"><path d="M10,11A4,4 0 0,1 6,7A4,4 0 0,1 10,3H18V5H16V21H14V5H12V21H10V11Z" /></svg>
